X: 874
T: Gönül Bahçemizde
C: Ömer Sami Güpgüp
O: Turkey
F: http://compmusic.upf.edu/node/140
N: segah--sarki--duyek--gonul_bahcemizde--omer_sami_gupgup
N: makam= segah
N: form= sarki
N: usul= duyek = 8/4
M: 8/4
L: 1/16
K: C _1/4B _1/4e ^f 
Q: 1/4=168
%%MIDI tuningsystem comma53
G2 B6 c6 d2  | d2 c2 B2 ^A2 B4 z4  | \
w:  Gö nül  bah çe  |  miz *  *  *  de   | 
z2 c4 d2 e8  | d2 g6 fe2d d4  | a2 g2 f2 e2 d2 e2 f2 g2  | 
w:  kök lü  bir   |  çı nar  var *  *  dı    |  SAZ  | 
f2 e2 d2 c2 e2 g2 f4  | g2 a4 g2 f4 z4  | \
w:   |  A til *  la   | 
e2 g4 f2 e4 z4  | d2 a4 g2 g4 f4  | 
w:  A til *  la   |  A til la  Köy men   | 
g2 f2 e2 d2 d4 z4  | a2 g2 f2 e2 d2 e2 f2 g2  | \
w:  ad *  *  *  lı    |  SAZ  | 
f2 e2 d2 c2 B2 ^A2 B4  | 
w:  SAZ  | 
G2 B6 c6 d2  | d2 c2 B2 ^A2 B4 z4  | \
w:  Gö nül  bah çe  |  miz *  *  *  de   | 
z2 c4 d2 e8  | d2 g6 fe2d d4  | a2 g2 f2 e2 d2 e2 f2 g2  | 
w:  kök lü  bir   |  çı nar  var *  *  dı    |  SAZ  | 
f2 e2 d2 c2 e2 g2 f4  | g2 a4 g2 f4 z4  | \
w:   |  A til *  la   | 
e2 g4 f2 e4 z4  | d2 a4 g2 g4 f4  | 
w:  A til *  la   |  A til la  Köy men   | 
g2 f2 e2 d2 d4 z4  | a2 g2 f2 e2 d2 e2 f2 g2  | \
w:  ad *  *  *  lı    |  SAZ  | 
f2 e2 d2 c2 B2 c2 d4  | 
w:  SAZ  | 
d2 e6 e4 e4  | e3d c2 d2 e4 z4  | g4 a4 g6 f2  | \
w:  Bu  fâ nî  deh  |  rin  *  *  e sen   |  za lim  fır tı  | 
e2 d2 c2 B2 c4 z4  | g4 a4 g6 f2  | 
w:  na la rı na     |  SAZ  | 
e2 d2 c2 B2 c4 z4  | B2 B6 B6 B2  | c2 c6 c6 c2  | \
w:   |  Te vek kül le   |  te vek kül le   | 
z4 d2 e2 d2 c2 B2 ^A2  | 
w:  da ya nır  | 
B4 d2 c2 B2 ^A2 B4  | a2 g2 f2 e2 d2 e2 f2 g2  | \
w:  dı   SAZ  |   | 
f2 e2 d2 c2 B2 c2 d4  | 
w:  SAZ  | 
d2 e6 e4 e4  | e3d c2 d2 e4 z4  | g4 a4 g6 f2  | \
w:  Bu  fâ nî  deh  |  rin  *  *  e sen   |  za lim  fır tı  | 
e2 d2 c2 B2 c4 z4  | g4 a4 g6 f2  | 
w:  na la rı na     |  SAZ  | 
e2 d2 c2 B2 c4 z4  | B2 B6 B6 B2  | c2 c6 c6 c2  | \
w:   |  Te vek kül le   |  te vek kül le   | 
z4 d2 e2 d2 c2 B2 ^A2  | 
w:  da ya nır  | 
B4 d2 c2 B2 ^A2 B4  | a2 g2 f2 e2 d2 e2 f2 g2  | \
w:  dı   SAZ  |   | 
f2 e2 d2 c2 B2 ^A2 B4  | 
w:  SAZ  | 
B2 B2 B4 c2 c2 c4  | d2 e6 d2 c2 B4  | \
w:  İ ki  Bin  yı lı nın   |  On  Mar tın *  da   | 
z2 B4 ^c2 d4 d4  | e2 f2 g12  | b16  | z4 g2 g2 g6 f2  | 
w:  sin si  fır  |  tı na  es  |  ti    |  O nu  dost la  | 
g2 a4 g2 f4 e4  | d2 _7/8b6 a2 g2 f4  | \
w:  rın *  *  dan   |  a yır *  *  dı   | 
g8 f2 e2 e2 d2  | d16  | a2 g2 f2 e2 d2 e2 f2 g2  | 
w:  al  |  dı    |  SAZ  | 
f2 e2 d2 c2 B2 ^A2 B4  | B2 B2 B4 c2 c2 c4  | \
w:  SAZ  |  İ ki  Bin  yı lı nın   | 
d2 e6 d2 c2 B4  | z2 B4 ^c2 d4 d4  | 
w:  On  Mar tın *  da   |  sin si  fır  | 
e2 f2 g12  | b16  | z4 g2 g2 g6 f2  | g2 a4 g2 f4 e4  | \
w:  tı na  es  |  ti    |  O nu  dost la  |  rın *  *  dan   | 
d2 _7/8b6 a2 g2 f4  | g8 f2 e2 e2 d2  | 
w:  a yır *  *  dı   |  al  | 
d16  | a2 g2 f2 e2 d2 e2 f2 g2  | f2 e2 d2 c2 B2 c2 d4  | \
w:  dı    |  SAZ  |  SAZ  | 
d2 e6 e4 e4  | e3d c2 d2 e4 z4  | 
w:  Bu  fâ nî  deh  |  rin  *  *  e sen   | 
g4 a4 g6 f2  | e2 d2 c2 B2 c4 z4  | g4 a4 g6 f2  | \
w:  za lim  fır tı  |  na la rı na     |  SAZ  | 
e2 d2 c2 B2 c4 z4  | B2 B6 B6 B2  | 
w:   |  Te vek kül le   | 
c2 c6 c6 c2  | z4 d2 e2 d2 c2 B2 ^A2  | \
w:  te vek kül le   |  da ya nır  | 
B4 |
w:  dı    | 


